X:1
T:Mahler No.2
T:Mahler No.2
T:Trombone 2
T:Gustav Mahler
C:Gustav Mahler
L:1/8
Q:1/4=80
M:4/4
K:Db
V:1 bass nm="Trombone" snm="Tbn."
V:1
!pp! !tenuto!A,4 !tenuto!A,4 | !tenuto!A,4 !tenuto!F,4 | !tenuto!B,4 !tenuto!G,2 !tenuto!G,2 | %3
 !tenuto!A,4 !breath!!tenuto!D,4 | !tenuto!=G,4 !tenuto!F,4 | !tenuto!A,4 A,2 B,2 | %6
 !tenuto!C2 !tenuto!E2 !tenuto!E2 !tenuto!D2 | C6 z2 |!p! !tenuto!C4 !tenuto!C4 | C4 z4 | %10
 C2 C2 C4 | C4 z4 | A,4 E,4 |!<(! C2 B,2 A,2 =A,2!<)! |!f! B,4 B,4 | _C4 =D4 | %16
!<(! =A,2 B,2 _A,2 =A,2!<)! |!ff!!p!!<(!!<(! C8-!<)!!<)! |!f! (C4!ff!!>(! (=B,4)!>)! | %19
[K:C]!p! C2) z2 z4 | z8 |!ff!!>(! G,,8-!>)! | G,,4 z2 G,2 | C4 D4 | E4 z2 G,C | E2 DC (D3 E) | %26
 E4 z2 (3G,CG, | F4 D4 | E4 z2 (3CG,C | F4 _A4 | G4 z4 | z4 z2!ff! G,2 | D4 _E4 | D4 z2 (3G,D,G, | %34
 D4 _E4 | D4 z2 (3DG,D | G4 z4 | z8 |!mf! C6 _E_D |!>(! C6 _E_D!>)! |!p! C8 | z8 | z8 | z8 | %44
 !fermata!z8 |[K:F] _A,4 G,4 | _A,4 _E,4 | .=B,2 .^A, z/ .B,/ ^F,4 | ._E2 .D z/ .E/ B,4 | z8 | z8 | %51
 z8 | z8 |[K:Ab]!ff! D4 C4 | D4 B,4 | E2 D_C D2 _G,2 | _C4 B,4 | C4 B,4 | C4 F4 | E2 A2 G2 F2 | %60
 !breath!C8 | C4 C4 | C4 z2 A,2 | D4 D4 | D4 z4 | B,4 B,4 | B,4 =D2 C2 | =D2 z2 z4 | z8 | z8 | z8 | %71
!f! D4 C4 | D4 B,4 | z8 |!fff! B,4 D4 |!>(! F,8-!>)! | F,2 z2!ff! B,2 D2 | F6 z2 | %78
!ff! !tenuto!B,2 D z/ F,/ !tenuto!B,2 D z/ F/ | B4 =A4 | A4 G4 | _G4 D4 | C8 | F,8 | =E,8 | %85
!ff! D,4 C,3 D, |!>(! G,,8-!>)! |!pp! G,,8 | !fermata!z8 |[M:2/2][Q:1/2=90]"^\n" z4 z2!ff! =B,C | %90
 D4- DC=B,C | A,2 F,2 z2 =B,C | (D3 C) =B,CFA | c2 z2 z A,B,C | D4 z A,B,C | D2 z2 z2 A,2 | %96
 D4- DCB,C | D2 G,2 z2 G,2 | D4- DCB,C | ^C2 =D2 z2 CD | ^D2 =E2 z2 A,D | ^D2 =E2 z2 G,E | %102
 F4- F=E=DE | F2 C2 z2 =EF |[Q:1/2=104]"^\n" _G4- GF=EF | ._G2 .C2 z2 .G2 | .C2 z2 ._G2 .C2 | %107
 z2 ._G2 .C2 z2 |!fff! !^!_G4 .C2 z2 | !^!_G4 .C2 z2 | _G8- | (3:2:2G4 .F2 (3.=E2 ._E2 .=D2 | %112
 .D2 .D,2 z4 | z8 |!ff! =B,4 =A,3 B, | ^F,8 | z8 |!ff! =E4 =D3 E | =B,8 | z8 | =B,4 =A,3 B, | %121
 ^F,8- | F,8 |] %123

